src/resources/flags/ae.svg

<svg height="336" viewBox="0 0 512 336" width="512" xmlns="http://www.w3.org/2000/svg"><g fill="none"><path d="m512.001 112.092h-353.104v-111.816h344.276a8.829 8.829 0 0 1 8.828 8.828z" fill="#73af00"/><path d="m503.172 335.724h-344.275v-111.816h353.103v102.988a8.828 8.828 0 0 1 -8.828 8.828z" fill="#464655"/><path d="m158.897 112.088h353.103v111.812h-353.103z" fill="#f5f5f5"/><path d="m158.897 335.724h-150.069a8.829 8.829 0 0 1 -8.828-8.828v-317.793a8.829 8.829 0 0 1 8.828-8.828h150.069z" fill="#ff4b55"/></g></svg>

<svg width="512" height="336" viewBox="0 0 512 336" xmlns="http://www.w3.org/2000/svg">
  <g fill="none">
    <path d="M512.001 112.092H158.897V.276h344.276a8.829 8.829 0 0 1 8.828 8.828v102.988z" fill="#73AF00"/>
    <path d="M503.172 335.724H158.897V223.908H512v102.988a8.828 8.828 0 0 1-8.828 8.828z" fill="#464655"/>
    <path fill="#F5F5F5" d="M158.897 112.088H512V223.9H158.897z"/>
    <path d="M158.897 335.724H8.828A8.829 8.829 0 0 1 0 326.896V9.103A8.829 8.829 0 0 1 8.828.275h150.069v335.449z" fill="#FF4B55"/>
  </g>
</svg>
